X: 1
T: Liam Doyles
M: 6/8
L: 1/8
R: jig
K: Dmaj
|: F2D EFG | Add efg | afd ecA | DFG EFG |
F2D =cAG | Add efg | afd =cBG | Adc d2G :|
|: dfa dad | a3 agf | efg efg | gea gfe |
dfd gda | a3/2g/f efg | afd =cAG | Adc d3 :|
